symbols/web/surround_sound/materialsymbolssharp/surround_sound_wght600_24px.svg

<svg xmlns="http://www.w3.org/2000/svg" height="24" width="24"><path d="M12 15q1.25 0 2.125-.875T15 12q0-1.25-.875-2.125T12 9q-1.25 0-2.125.875T9 12q0 1.25.875 2.125T12 15Zm4.775 1.775q.95-.925 1.488-2.125.537-1.2.537-2.65t-.537-2.65q-.538-1.2-1.488-2.15l-1.4 1.4q.675.675 1.05 1.525.375.85.375 1.875t-.375 1.875q-.375.85-1.05 1.525Zm-9.55 0 1.4-1.375q-.675-.675-1.05-1.525Q7.2 13.025 7.2 12t.375-1.875q.375-.85 1.05-1.525l-1.4-1.4q-.95.95-1.487 2.15Q5.2 10.55 5.2 12t.538 2.65q.537 1.2 1.487 2.125Zm-5.7 3.7V3.525h20.95v16.95Zm2.65-2.65V6.175Zm0 0h15.65V6.175H4.175Z"/></svg>

<svg xmlns="http://www.w3.org/2000/svg" height="24" width="24"><path d="M12 15Q13.25 15 14.125 14.125Q15 13.25 15 12Q15 10.75 14.125 9.875Q13.25 9 12 9Q10.75 9 9.875 9.875Q9 10.75 9 12Q9 13.25 9.875 14.125Q10.75 15 12 15ZM16.775 16.775Q17.725 15.85 18.263 14.65Q18.8 13.45 18.8 12Q18.8 10.55 18.263 9.35Q17.725 8.15 16.775 7.2L15.375 8.6Q16.05 9.275 16.425 10.125Q16.8 10.975 16.8 12Q16.8 13.025 16.425 13.875Q16.05 14.725 15.375 15.4ZM7.225 16.775 8.625 15.4Q7.95 14.725 7.575 13.875Q7.2 13.025 7.2 12Q7.2 10.975 7.575 10.125Q7.95 9.275 8.625 8.6L7.225 7.2Q6.275 8.15 5.738 9.35Q5.2 10.55 5.2 12Q5.2 13.45 5.738 14.65Q6.275 15.85 7.225 16.775ZM1.525 20.475V3.525H22.475V20.475ZM4.175 17.825V6.175ZM4.175 17.825H19.825V6.175H4.175Z"/></svg>
